X:702
T:Templehouse Jig
M:6/8
L:1/8
K:G
|:"Em"EFE G2 A|B2 F G2 E|"D"DED F2 D|A2 D F2 D|"C"EFE G2 A|B2 F G2 A|
"D"BcB AGF|"Em"BGE E2:||:f|"Em"g2 f e2 f|g2 g e2 g|"D"faf d2 e|faf d2 f|
"C"g2 f e2 f|g2 f e2 d|"D"BcB AGF|"Em"BGE E2:|
"final ending"f|"Em"g2 f e2 f|g2 f e2 g|"D"faf d2 e|faf d2 f|\
"Em"b2 g "D"a2 f|"C"g2 e "D"f2 d|BcB AGF|
"Em"BGE E2|]
